public/images/sponsors/REA Group.svg

<svg fill="none" height="86" viewBox="0 0 172 86" width="172" xmlns="http://www.w3.org/2000/svg"><path d="m9.00024 43.3032c-.0195 4.0343 1.16406 7.9838 3.40106 11.3492 2.2369 3.3653 5.4269 5.9956 9.1666 7.5581 3.7397 1.5626 7.8613 1.9873 11.8436 1.2205 3.9824-.7668 7.6468-2.6907 10.53-5.5285 2.8832-2.8377 4.8557-6.462 5.6682-10.4145.8125-3.9526.4286-8.056-1.1033-11.7916s-4.143-6.9356-7.5032-9.1954c-3.3602-2.2599-7.3186-3.4783-11.3748-3.501h-.1154c-5.4232-.0001-10.6258 2.1359-14.4699 5.9407-3.844 3.8047-6.01671 8.9687-6.04286 14.3625z" fill="#ec1a3b"/><path d="m42.9681 40.597-12.1856-12.0704c-.1535-.1881-.3469-.3401-.5665-.445-.2195-.105-.4597-.1602-.7032-.1618-.2384-.0065-.4754.0386-.6946.132s-.4154.233-.5751.4092l-12.1856 12.136c-.3625.3678-.6082.8335-.7064 1.3391-.0982.5057-.0446 1.0289.154 1.5045.1987.4756.5336.8825.9632 1.1701.4295.2876.9347.4431 1.4525.4471h1.6489v9.184c0 .435.1737.8521.483 1.1597.3092.3075.7286.4803 1.1659.4803h16.4894c.4373 0 .8567-.1728 1.166-.4803.3092-.3076.4829-.7247.4829-1.1597v-9.184h1.6489c.5178-.004 1.023-.1595 1.4525-.4471.4296-.2876.7646-.6945.9632-1.1701.1987-.4756.2522-.9988.154-1.5045-.0982-.5056-.3439-.9713-.7064-1.3391zm-6.8596 1.312v10.8568h-13.2904v-10.8568h-3.5122l10.2234-10.1188 10.2234 10.1188z" fill="#fff"/><g fill="#333f48"><path d="m68.131 52.1926h-2.9351c-.2638 0-.3627-.246-.4782-.4756l-3.4792-6.4124h-.3298c-.6266 0-1.6489 0-2.1436-.0984v6.56c.0022.0617-.0081.1232-.0303.1808s-.0559.1102-.099.1546-.0947.0797-.1518.1038c-.0572.024-.1186.0364-.1806.0364h-2.4404c-.1269 0-.2485-.0501-.3382-.1393s-.14-.2102-.14-.3363v-16.5968c0-.4756.2968-.656.775-.7216 1.5678-.2178 3.1494-.322 4.7324-.3116 3.7266 0 6.9585 1.3284 6.9585 5.4284v.2132c.0607 1.0648-.2281 2.1204-.8229 3.0077-.5948.8874-1.4634 1.5585-2.475 1.9123l3.8091 7.0028c.0202.0641.0202.1328 0 .1968.0046.0345.0023.0696-.0069.1032-.0091.0336-.0249.065-.0464.0925s-.0482.0504-.0787.0675-.0641.028-.0989.032zm-3.6276-12.6116c0-1.804-1.2037-2.5748-3.6277-2.5748-.5112 0-1.6489 0-2.1436.0984v5.412h2.1436c2.4899 0 3.6277-.6724 3.6277-2.788z"/><path d="m80.003 52.0443c-1.513.2625-3.0488.3724-4.584.328-3.133 0-5.5899-.8364-5.5899-4.92v-8.3968c0-4.0836 2.4404-4.92 5.5899-4.92 1.5358-.0396 3.0717.0758 4.584.3444.3628 0 .4782.164.4782.5084v1.5416c0 .1262-.0504.2471-.14.3363-.0897.0892-.2113.1393-.3382.1393h-4.9468c-1.4016 0-1.9127.4756-1.9127 2.0664v2.5912h6.5957c.1268 0 .2484.0501.3381.1393s.1401.2102.1401.3363v1.7384c0 .1262-.0504.2471-.1401.3363s-.2113.1393-.3381.1393h-6.5957v3.0996c0 1.64.5111 2.0664 1.9127 2.0664h4.9468c.1269 0 .2485.0501.3382.1393.0896.0892.14.2102.14.3363v1.5416c0 .3444-.1154.4592-.4782.5084z"/><path d="m95.9322 52.192h-2.5558c-.1115-.0087-.217-.0535-.3004-.1276-.0834-.074-.14-.1732-.1613-.2824l-1.1048-4.5592h-5.5734l-1.1048 4.5592c-.0213.1092-.078.2084-.1614.2824-.0834.0741-.1889.1189-.3003.1276h-2.5723c-.0555.0022-.1109-.0067-.1629-.0263-.0519-.0197-.0993-.0495-.1393-.0878-.0401-.0383-.0719-.0842-.0937-.1351-.0217-.0508-.0329-.1055-.0329-.1608.0022-.0382.0022-.0765 0-.1148l3.9575-15.0716c.2216-.713.6669-1.3366 1.2708-1.7796.6038-.443 1.3344-.682 2.0848-.682.7503 0 1.4809.239 2.0848.682.6038.443 1.0491 1.0666 1.2707 1.7796l4.0564 15.0552c-.0021.0383-.0021.0766 0 .1148.0029.0596-.0074.1191-.0301.1744-.0227.0552-.0572.1049-.1012.1455-.0439.0406-.0963.0712-.1533.0896-.0571.0184-.1175.0242-.1771.0169zm-6.5957-14.8584c0-.2952-.1484-.3772-.3793-.3772-.2308 0-.3133.0984-.3792.3772l-1.7479 7.134h4.2542z"/><path d="m122.958 41.1547c-1.155.0081-2.29.3072-3.298.8692v9.6596c.001.1293-.049.2539-.138.3483-.088.0945-.21.1517-.34.1601h-2.259c-.13-.0084-.251-.0656-.34-.1601-.089-.0944-.138-.219-.138-.3483v-12.5788c0-.1262.05-.2471.14-.3363s.211-.1393.338-.1393h2.094c.127 0 .249.0501.338.1393.09.0892.14.2101.14.3363v.5084c.994-.755 2.213-1.159 3.463-1.148.126.0041.245.0555.334.1438.088.0883.14.2069.144.3318v1.7384c0 .1261-.05.2471-.14.3363-.089.0892-.211.1393-.338.1393z"/><path d="m129.818 52.3723c-.792.0468-1.584-.078-2.322-.3658-.739-.2878-1.405-.7317-1.954-1.3009-.549-.5693-.967-1.2504-1.225-1.9962s-.351-1.5384-.27-2.3231v-1.9352c-.06-.7903.044-1.5844.307-2.3326.263-.7481.678-1.4343 1.22-2.0155.542-.5811 1.198-1.0447 1.929-1.3618.73-.317 1.518-.4807 2.315-.4807s1.585.1637 2.315.4807c.731.3171 1.387.7807 1.929 1.3618.542.5812.957 1.2674 1.22 2.0155.263.7482.367 1.5423.307 2.3326v1.9516c.078.7834-.016 1.5742-.275 2.318-.26.7437-.678 1.4227-1.227 1.9901-.548.5675-1.214 1.0099-1.951 1.2967s-1.528.4113-2.318.3648zm2.589-7.9376c0-1.968-.891-3.28-2.589-3.28s-2.589 1.2792-2.589 3.28v1.9516c0 1.968.891 3.28 2.589 3.28s2.589-1.2792 2.589-3.28z"/><path d="m147.873 52.192h-2.226c-.127 0-.248-.0502-.338-.1393-.09-.0892-.14-.2102-.14-.3363v-.5576c-1.099.8004-2.431 1.2209-3.793 1.1972-1.085.0636-2.152-.3018-2.968-1.0168-.956-1.2498-1.387-2.8193-1.204-4.3788v-7.8228c-.002-.1194.038-.2358.114-.3288.075-.093.181-.1566.299-.1796h2.226c.13.0083.251.0655.34.16.089.0944.138.219.138.3484v7.8392c0 1.1972.099 1.9024.561 2.3124.426.3291.963.4818 1.5.4264.972-.1235 1.905-.4535 2.737-.9676v-9.6104c0-.1294.049-.254.138-.3484.089-.0945.211-.1517.341-.16h2.226c.129.0083.251.0655.34.16.089.0944.138.219.138.3484v12.5624c.005.1208-.037.239-.117.3304-.079.0914-.191.1491-.312.1616z"/><path d="m155.756 52.3723c-.778-.0055-1.555-.0603-2.325-.164v4.2476c0 .1261-.051.2471-.141.3363-.089.0892-.211.1393-.338.1393h-2.143c-.127 0-.249-.0501-.338-.1393-.09-.0892-.14-.2102-.14-.3363v-16.728c0-.3608.099-.5084.659-.656 1.559-.386 3.159-.5897 4.766-.6068 3.891 0 5.771 2.2796 5.771 6.0352v1.8532c.049 3.7392-1.847 6.0188-5.771 6.0188zm2.588-7.8884c0-1.968-.511-3.444-2.588-3.444-.779-.009-1.556.0458-2.325.164v8.3968c.771.0991 1.547.1539 2.325.164 2.077 0 2.588-1.4596 2.588-3.444z"/><path d="m113.625 51.9787c-1.735.3102-3.497.4476-5.26.41-2.605 0-6.48-1.64-6.48-7.38v-3.4604c0-5.6908 3.677-7.3964 6.596-7.3964 1.74.0004 3.477.143 5.194.4264.313 0 .461.1968.461.5084v1.64c0 .3444-.099.5084-.478.5084-1.105-.0984-2.77-.1968-5.095-.1968-1.649 0-3.166 1.1316-3.166 4.5428v3.4604c0 3.4112 1.649 4.51 3.084 4.51h2.39v-6.232c-.006-.1093.027-.2173.094-.3045.066-.0872.162-.1479.269-.1711h2.391c.127 0 .249.0501.338.1393.09.0891.14.2101.14.3363v8.0688c.01.0702.004.1416-.015.2098-.019.0681-.052.1317-.097.1869s-.1.1008-.163.134c-.063.0333-.132.0536-.203.0597z"/><path d="m113.625 51.9787c-1.735.3102-3.497.4476-5.26.41-2.605 0-6.48-1.64-6.48-7.38v-3.4604c0-5.6908 3.677-7.3964 6.596-7.3964 1.74.0004 3.477.143 5.194.4264.313 0 .461.1968.461.5084v1.64c0 .3444-.099.5084-.478.5084-1.105-.0984-2.77-.1968-5.095-.1968-1.649 0-3.166 1.1316-3.166 4.5428v3.4604c0 3.4112 1.649 4.51 3.084 4.51h2.39v-6.232c-.006-.1093.027-.2173.094-.3045.066-.0872.162-.1479.269-.1711h2.391c.127 0 .249.0501.338.1393.09.0891.14.2101.14.3363v8.0688c.01.0702.004.1416-.015.2098-.019.0681-.052.1317-.097.1869s-.1.1008-.163.134c-.063.0333-.132.0536-.203.0597z"/><path d="m162.351 37.8584c-.304.0065-.604-.0774-.861-.2409-.256-.1636-.458-.3995-.579-.6775-.121-.2781-.156-.5857-.101-.8837.056-.298.199-.5728.412-.7894s.486-.3652.785-.4268c.298-.0615.608-.0333.89.0811s.524.3099.694.5613c.17.2515.261.5477.261.8507.004.1987-.031.3963-.105.5812-.073.1849-.183.3533-.323.4954-.14.142-.307.2549-.491.3319-.184.0771-.382.1167-.582.1167zm0-2.788c-.166-.0048-.332.0248-.487.0871-.154.0622-.294.1556-.41.2743s-.206.2601-.265.4152c-.058.1552-.084.3207-.075.4862-.02.1723-.003.347.05.5124.052.1654.139.3179.255.4475.116.1295.259.2332.418.3042s.331.1077.506.1077c.174 0 .347-.0367.506-.1077s.301-.1747.417-.3042c.116-.1296.204-.2821.256-.4475.053-.1654.069-.3401.049-.5124.012-.1646-.011-.3298-.068-.485-.056-.1551-.145-.2968-.26-.4157-.115-.119-.254-.2127-.407-.2751-.154-.0623-.319-.092-.485-.087zm.33 2.0336-.33-.5904h-.313v.5904h-.28v-1.64h.593c.07-.0068.14.0008.207.0223.067.0214.128.0563.181.1025.053.0461.095.1025.125.1657s.046.1318.048.2015c.004.0976-.023.194-.076.2762-.053.0821-.13.146-.221.183l.297.6396zm-.33-1.3284h-.313v.492h.313c.165 0 .28 0 .28-.246.001-.0353-.007-.0702-.021-.1024s-.036-.0609-.062-.0843c-.027-.0233-.058-.0407-.092-.0509s-.07-.0131-.105-.0084z"/></g></svg>

<svg width="172" height="86" viewBox="0 0 172 86" fill="none" xmlns="http://www.w3.org/2000/svg">
<path d="M9.00024 43.3032C8.98074 47.3375 10.1643 51.287 12.4013 54.6524C14.6382 58.0177 17.8282 60.648 21.5679 62.2105C25.3076 63.7731 29.4292 64.1978 33.4115 63.431C37.3939 62.6642 41.0583 60.7403 43.9415 57.9025C46.8247 55.0648 48.7972 51.4405 49.6097 47.488C50.4222 43.5354 50.0383 39.432 48.5064 35.6964C46.9745 31.9608 44.3634 28.7608 41.0032 26.501C37.643 24.2411 33.6846 23.0227 29.6284 23L29.513 23C24.0898 22.9999 18.8872 25.1359 15.0431 28.9407C11.1991 32.7454 9.02639 37.9094 9.00024 43.3032Z" fill="#EC1A3B"/>
<path d="M42.9681 40.597L30.7825 28.5266C30.629 28.3385 30.4356 28.1865 30.216 28.0816C29.9965 27.9766 29.7563 27.9214 29.5128 27.9198C29.2744 27.9133 29.0374 27.9584 28.8182 28.0518C28.599 28.1452 28.4028 28.2848 28.2431 28.461L16.0575 40.597C15.695 40.9648 15.4493 41.4305 15.3511 41.9361C15.2529 42.4418 15.3065 42.965 15.5051 43.4406C15.7038 43.9162 16.0387 44.3231 16.4683 44.6107C16.8978 44.8983 17.403 45.0538 17.9208 45.0578H19.5697C19.5697 45.0578 19.5697 54.2254 19.5697 54.2418C19.5697 54.6768 19.7434 55.0939 20.0527 55.4015C20.3619 55.709 20.7813 55.8818 21.2186 55.8818H37.708C38.1453 55.8818 38.5647 55.709 38.874 55.4015C39.1832 55.0939 39.3569 54.6768 39.3569 54.2418V45.0578H41.0058C41.5236 45.0538 42.0288 44.8983 42.4583 44.6107C42.8879 44.3231 43.2229 43.9162 43.4215 43.4406C43.6202 42.965 43.6737 42.4418 43.5755 41.9361C43.4773 41.4305 43.2316 40.9648 42.8691 40.597H42.9681ZM36.1085 41.909V52.7658H22.8181V41.909H19.3059L29.5293 31.7902L39.7527 41.909H36.1085Z" fill="white"/>
<path d="M68.131 52.1926H65.1959C64.9321 52.1926 64.8332 51.9466 64.7177 51.717L61.2385 45.3046H60.9087C60.2821 45.3046 59.2598 45.3046 58.7651 45.2062V51.7662C58.7673 51.8279 58.757 51.8894 58.7348 51.947C58.7126 52.0046 58.6789 52.0572 58.6358 52.1016C58.5927 52.146 58.5411 52.1813 58.484 52.2054C58.4268 52.2294 58.3654 52.2418 58.3034 52.2418H55.863C55.7361 52.2418 55.6145 52.1917 55.5248 52.1025C55.4351 52.0133 55.3848 51.8923 55.3848 51.7662V35.1694C55.3848 34.6938 55.6816 34.5134 56.1598 34.4478C57.7276 34.23 59.3092 34.1258 60.8922 34.1362C64.6188 34.1362 67.8507 35.4646 67.8507 39.5646V39.7778C67.9114 40.8426 67.6226 41.8982 67.0278 42.7855C66.433 43.6729 65.5644 44.344 64.5528 44.6978L68.3619 51.7006C68.3821 51.7647 68.3821 51.8334 68.3619 51.8974C68.3665 51.9319 68.3642 51.967 68.355 52.0006C68.3459 52.0342 68.3301 52.0656 68.3086 52.0931C68.2871 52.1206 68.2604 52.1435 68.2299 52.1606C68.1994 52.1777 68.1658 52.1886 68.131 52.1926ZM64.5034 39.581C64.5034 37.777 63.2997 37.0062 60.8757 37.0062C60.3645 37.0062 59.2268 37.0062 58.7321 37.1046V42.5166H60.8757C63.3656 42.5166 64.5034 41.8442 64.5034 39.7286V39.581Z" fill="#333F48"/>
<path d="M80.003 52.0443C78.49 52.3068 76.9542 52.4167 75.419 52.3723C72.286 52.3723 69.8291 51.5359 69.8291 47.4523V39.0555C69.8291 34.9719 72.2695 34.1355 75.419 34.1355C76.9548 34.0959 78.4907 34.2113 80.003 34.4799C80.3658 34.4799 80.4812 34.6439 80.4812 34.9883V36.5299C80.4812 36.6561 80.4308 36.777 80.3412 36.8662C80.2515 36.9554 80.1299 37.0055 80.003 37.0055H75.0562C73.6546 37.0055 73.1435 37.4811 73.1435 39.0719V41.6631H79.7392C79.866 41.6631 79.9876 41.7132 80.0773 41.8024C80.167 41.8916 80.2174 42.0126 80.2174 42.1387V43.8771C80.2174 44.0033 80.167 44.1242 80.0773 44.2134C79.9876 44.3026 79.866 44.3527 79.7392 44.3527H73.1435V47.4523C73.1435 49.0923 73.6546 49.5187 75.0562 49.5187H80.003C80.1299 49.5187 80.2515 49.5688 80.3412 49.658C80.4308 49.7472 80.4812 49.8682 80.4812 49.9943V51.5359C80.4812 51.8803 80.3658 51.9951 80.003 52.0443Z" fill="#333F48"/>
<path d="M95.9322 52.192H93.3764C93.2649 52.1833 93.1594 52.1385 93.076 52.0644C92.9926 51.9904 92.936 51.8912 92.9147 51.782L91.8099 47.2228H86.2365L85.1317 51.782C85.1104 51.8912 85.0537 51.9904 84.9703 52.0644C84.8869 52.1385 84.7814 52.1833 84.67 52.192H82.0977C82.0422 52.1942 81.9868 52.1853 81.9348 52.1657C81.8829 52.146 81.8355 52.1162 81.7955 52.0779C81.7554 52.0396 81.7236 51.9937 81.7018 51.9428C81.6801 51.892 81.6689 51.8373 81.6689 51.782C81.6711 51.7438 81.6711 51.7055 81.6689 51.6672L85.6264 36.5956C85.848 35.8826 86.2933 35.259 86.8972 34.816C87.501 34.373 88.2316 34.134 88.982 34.134C89.7323 34.134 90.4629 34.373 91.0668 34.816C91.6706 35.259 92.1159 35.8826 92.3375 36.5956L96.3939 51.6508C96.3918 51.6891 96.3918 51.7274 96.3939 51.7656C96.3968 51.8252 96.3865 51.8847 96.3638 51.94C96.3411 51.9952 96.3066 52.0449 96.2626 52.0855C96.2187 52.1261 96.1663 52.1567 96.1093 52.1751C96.0522 52.1935 95.9918 52.1993 95.9322 52.192ZM89.3365 37.3336C89.3365 37.0384 89.1881 36.9564 88.9572 36.9564C88.7264 36.9564 88.6439 37.0548 88.578 37.3336L86.8301 44.4676H91.0843L89.3365 37.3336Z" fill="#333F48"/>
<path d="M122.958 41.1547C121.803 41.1628 120.668 41.4619 119.66 42.0239V51.6835C119.661 51.8128 119.611 51.9374 119.522 52.0318C119.434 52.1263 119.312 52.1835 119.182 52.1919H116.923C116.793 52.1835 116.672 52.1263 116.583 52.0318C116.494 51.9374 116.445 51.8128 116.445 51.6835V39.1047C116.445 38.9785 116.495 38.8576 116.585 38.7684C116.675 38.6792 116.796 38.6291 116.923 38.6291H119.017C119.144 38.6291 119.266 38.6792 119.355 38.7684C119.445 38.8576 119.495 38.9785 119.495 39.1047V39.6131C120.489 38.8581 121.708 38.4541 122.958 38.4651C123.084 38.4692 123.203 38.5206 123.292 38.6089C123.38 38.6972 123.432 38.8158 123.436 38.9407V40.6791C123.436 40.8052 123.386 40.9262 123.296 41.0154C123.207 41.1046 123.085 41.1547 122.958 41.1547Z" fill="#333F48"/>
<path d="M129.818 52.3723C129.026 52.4191 128.234 52.2943 127.496 52.0065C126.757 51.7187 126.091 51.2748 125.542 50.7056C124.993 50.1363 124.575 49.4552 124.317 48.7094C124.059 47.9636 123.966 47.171 124.047 46.3863V44.4511C123.987 43.6608 124.091 42.8667 124.354 42.1185C124.617 41.3704 125.032 40.6842 125.574 40.103C126.116 39.5219 126.772 39.0583 127.503 38.7412C128.233 38.4242 129.021 38.2605 129.818 38.2605C130.615 38.2605 131.403 38.4242 132.133 38.7412C132.864 39.0583 133.52 39.5219 134.062 40.103C134.604 40.6842 135.019 41.3704 135.282 42.1185C135.545 42.8667 135.649 43.6608 135.589 44.4511V46.4027C135.667 47.1861 135.573 47.9769 135.314 48.7207C135.054 49.4644 134.636 50.1434 134.087 50.7108C133.539 51.2783 132.873 51.7207 132.136 52.0075C131.399 52.2943 130.608 52.4188 129.818 52.3723ZM132.407 44.4347C132.407 42.4667 131.516 41.1547 129.818 41.1547C128.12 41.1547 127.229 42.4339 127.229 44.4347V46.3863C127.229 48.3543 128.12 49.6663 129.818 49.6663C131.516 49.6663 132.407 48.3871 132.407 46.3863V44.4347Z" fill="#333F48"/>
<path d="M147.873 52.192H145.647C145.52 52.192 145.399 52.1418 145.309 52.0527C145.219 51.9635 145.169 51.8425 145.169 51.7164V51.1588C144.07 51.9592 142.738 52.3797 141.376 52.356C140.291 52.4196 139.224 52.0542 138.408 51.3392C137.452 50.0894 137.021 48.5199 137.204 46.9604V39.1376C137.202 39.0182 137.242 38.9018 137.318 38.8088C137.393 38.7158 137.499 38.6522 137.617 38.6292H139.843C139.973 38.6375 140.094 38.6947 140.183 38.7892C140.272 38.8836 140.321 39.0082 140.321 39.1376V46.9768C140.321 48.174 140.42 48.8792 140.882 49.2892C141.308 49.6183 141.845 49.771 142.382 49.7156C143.354 49.5921 144.287 49.2621 145.119 48.748V39.1376C145.119 39.0082 145.168 38.8836 145.257 38.7892C145.346 38.6947 145.468 38.6375 145.598 38.6292H147.824C147.953 38.6375 148.075 38.6947 148.164 38.7892C148.253 38.8836 148.302 39.0082 148.302 39.1376V51.7C148.307 51.8208 148.265 51.939 148.185 52.0304C148.106 52.1218 147.994 52.1795 147.873 52.192Z" fill="#333F48"/>
<path d="M155.756 52.3723C154.978 52.3668 154.201 52.312 153.431 52.2083V56.4559C153.431 56.582 153.38 56.703 153.29 56.7922C153.201 56.8814 153.079 56.9315 152.952 56.9315H150.809C150.682 56.9315 150.56 56.8814 150.471 56.7922C150.381 56.703 150.331 56.582 150.331 56.4559V39.7279C150.331 39.3671 150.43 39.2195 150.99 39.0719C152.549 38.6859 154.149 38.4822 155.756 38.4651C159.647 38.4651 161.527 40.7447 161.527 44.5003V46.3535C161.576 50.0927 159.68 52.3723 155.756 52.3723ZM158.344 44.4839C158.344 42.5159 157.833 41.0399 155.756 41.0399C154.977 41.0309 154.2 41.0857 153.431 41.2039V49.6007C154.202 49.6998 154.978 49.7546 155.756 49.7647C157.833 49.7647 158.344 48.3051 158.344 46.3207V44.4839Z" fill="#333F48"/>
<path d="M113.625 51.9787C111.89 52.2889 110.128 52.4263 108.365 52.3887C105.76 52.3887 101.885 50.7487 101.885 45.0087V41.5483C101.885 35.8575 105.562 34.1519 108.481 34.1519C110.221 34.1523 111.958 34.2949 113.675 34.5783C113.988 34.5783 114.136 34.7751 114.136 35.0867V36.7267C114.136 37.0711 114.037 37.2351 113.658 37.2351C112.553 37.1367 110.888 37.0383 108.563 37.0383C106.914 37.0383 105.397 38.1699 105.397 41.5811V45.0415C105.397 48.4527 107.046 49.5515 108.481 49.5515C109.371 49.5515 110.129 49.5515 110.871 49.5515V43.3195C110.865 43.2102 110.898 43.1022 110.965 43.015C111.031 42.9278 111.127 42.8671 111.234 42.8439H113.625C113.752 42.8439 113.874 42.894 113.963 42.9832C114.053 43.0723 114.103 43.1933 114.103 43.3195V51.3883C114.113 51.4585 114.107 51.5299 114.088 51.5981C114.069 51.6662 114.036 51.7298 113.991 51.785C113.946 51.8402 113.891 51.8858 113.828 51.919C113.765 51.9523 113.696 51.9726 113.625 51.9787Z" fill="#333F48"/>
<path d="M113.625 51.9787C111.89 52.2889 110.128 52.4263 108.365 52.3887C105.76 52.3887 101.885 50.7487 101.885 45.0087V41.5483C101.885 35.8575 105.562 34.1519 108.481 34.1519C110.221 34.1523 111.958 34.2949 113.675 34.5783C113.988 34.5783 114.136 34.7751 114.136 35.0867V36.7267C114.136 37.0711 114.037 37.2351 113.658 37.2351C112.553 37.1367 110.888 37.0383 108.563 37.0383C106.914 37.0383 105.397 38.1699 105.397 41.5811V45.0415C105.397 48.4527 107.046 49.5515 108.481 49.5515C109.371 49.5515 110.129 49.5515 110.871 49.5515V43.3195C110.865 43.2102 110.898 43.1022 110.965 43.015C111.031 42.9278 111.127 42.8671 111.234 42.8439H113.625C113.752 42.8439 113.874 42.894 113.963 42.9832C114.053 43.0723 114.103 43.1933 114.103 43.3195V51.3883C114.113 51.4585 114.107 51.5299 114.088 51.5981C114.069 51.6662 114.036 51.7298 113.991 51.785C113.946 51.8402 113.891 51.8858 113.828 51.919C113.765 51.9523 113.696 51.9726 113.625 51.9787Z" fill="#333F48"/>
<path d="M162.351 37.8584C162.047 37.8649 161.747 37.781 161.49 37.6175C161.234 37.4539 161.032 37.218 160.911 36.94C160.79 36.6619 160.755 36.3543 160.81 36.0563C160.866 35.7583 161.009 35.4835 161.222 35.2669C161.435 35.0503 161.708 34.9017 162.007 34.8401C162.305 34.7786 162.615 34.8068 162.897 34.9212C163.179 35.0356 163.421 35.2311 163.591 35.4825C163.761 35.734 163.852 36.0302 163.852 36.3332C163.856 36.5319 163.821 36.7295 163.747 36.9144C163.674 37.0993 163.564 37.2677 163.424 37.4098C163.284 37.5518 163.117 37.6647 162.933 37.7417C162.749 37.8188 162.551 37.8584 162.351 37.8584ZM162.351 35.0704C162.185 35.0656 162.019 35.0952 161.864 35.1575C161.71 35.2197 161.57 35.3131 161.454 35.4318C161.338 35.5505 161.248 35.6919 161.189 35.847C161.131 36.0022 161.105 36.1677 161.114 36.3332C161.094 36.5055 161.111 36.6802 161.164 36.8456C161.216 37.011 161.303 37.1635 161.419 37.2931C161.535 37.4226 161.678 37.5263 161.837 37.5973C161.996 37.6683 162.168 37.705 162.343 37.705C162.517 37.705 162.69 37.6683 162.849 37.5973C163.008 37.5263 163.15 37.4226 163.266 37.2931C163.382 37.1635 163.47 37.011 163.522 36.8456C163.575 36.6802 163.591 36.5055 163.571 36.3332C163.583 36.1686 163.56 36.0034 163.503 35.8482C163.447 35.6931 163.358 35.5514 163.243 35.4325C163.128 35.3135 162.989 35.2198 162.836 35.1574C162.682 35.0951 162.517 35.0654 162.351 35.0704ZM162.681 37.104L162.351 36.5136H162.038V37.104H161.758V35.464H162.351C162.421 35.4572 162.491 35.4648 162.558 35.4863C162.625 35.5077 162.686 35.5426 162.739 35.5888C162.792 35.6349 162.834 35.6913 162.864 35.7545C162.894 35.8177 162.91 35.8863 162.912 35.956C162.916 36.0536 162.889 36.15 162.836 36.2322C162.783 36.3143 162.706 36.3782 162.615 36.4152L162.912 37.0548L162.681 37.104ZM162.351 35.7756H162.038V36.2676H162.351C162.516 36.2676 162.631 36.2676 162.631 36.0216C162.632 35.9863 162.624 35.9514 162.61 35.9192C162.596 35.887 162.574 35.8583 162.548 35.8349C162.521 35.8116 162.49 35.7942 162.456 35.784C162.422 35.7738 162.386 35.7709 162.351 35.7756Z" fill="#333F48"/>
</svg>
